X:1
M:3/4
K:G
e|:d2B|A3/2B/2c|B2G|A2e|d2B|A3/2B/2c|
cAF|G3/2F/2G|E2G|B3/2c/2d|B3/2G/2G/2A3/2|\
A3 A3/2c/2B/2c/2|
A3 -A3|G3/2A/2G GGE|G3 G2|c/2d/2e cAG|F2A ABc|d2B d3:|